src/moj/assets/images/icon-wysiwyg-unordered-list.svg

<svg xmlns="http://www.w3.org/2000/svg" width="40" height="40"><path d="M15.2 13v2h14v-2h-14zm0 8h14v-2h-14v2zm0 6h14v-2h-14v2zm-3-2.5c-.8 0-1.5.7-1.5 1.5s.7 1.5 1.5 1.5 1.5-.7 1.5-1.5-.6-1.5-1.5-1.5zm0-12c-.8 0-1.5.7-1.5 1.5s.7 1.5 1.5 1.5 1.5-.7 1.5-1.5-.6-1.5-1.5-1.5zm0 6c-.8 0-1.5.7-1.5 1.5s.7 1.5 1.5 1.5 1.5-.7 1.5-1.5-.6-1.5-1.5-1.5z"/></svg>

<svg xmlns="http://www.w3.org/2000/svg" viewBox="0 0 40 40" width="40" height="40"><path d="M15.2,13v2h14v-2H15.2z M15.2,21h14v-2h-14V21z M15.2,27h14v-2h-14V27z M12.2,24.5c-0.8,0-1.5,0.7-1.5,1.5
	s0.7,1.5,1.5,1.5s1.5-0.7,1.5-1.5S13.1,24.5,12.2,24.5z M12.2,12.5c-0.8,0-1.5,0.7-1.5,1.5s0.7,1.5,1.5,1.5s1.5-0.7,1.5-1.5S13.1,12.5,12.2,12.5z M12.2,18.5c-0.8,0-1.5,0.7-1.5,1.5s0.7,1.5,1.5,1.5s1.5-0.7,1.5-1.5S13.1,18.5,12.2,18.5z"/>
</svg>
